site/static/docs/images/icons/opentelemetry_gray.svg

<svg fill="none" height="128" viewBox="0 0 128 128" width="128" xmlns="http://www.w3.org/2000/svg" xmlns:xlink="http://www.w3.org/1999/xlink"><clipPath id="a"><path d="m0 0h128v128h-128z"/></clipPath><g clip-path="url(#a)"><path d="m67.7173 69.9573c-1.2968 1.2967-2.3254 2.8362-3.0272 4.5305s-1.063 3.5103-1.063 5.3441c0 1.8339.3612 3.6499 1.063 5.3442s1.7304 3.2338 3.0272 4.5305c1.2968 1.2968 2.8362 2.3254 4.5305 3.0272s3.5103 1.063 5.3442 1.063 3.6498-.3612 5.3441-1.063 3.2338-1.7304 4.5305-3.0272c2.619-2.6189 4.0902-6.1709 4.0902-9.8747 0-3.7037-1.4712-7.2557-4.0902-9.8746-2.6189-2.6189-6.1709-4.0902-9.8746-4.0902-3.7038 0-7.2558 1.4713-9.8747 4.0902zm14.7627 14.7733c-.6371.6618-1.3997 1.1899-2.2433 1.5535-.8435.3636-1.7511.5555-2.6696.5643-.9185.0089-1.8296-.1655-2.68-.5128s-1.623-.8607-2.2727-1.51c-.6497-.6494-1.1635-1.4217-1.5113-2.2719s-.5226-1.7612-.5143-2.6797c.0084-.9186.1997-1.8262.5629-2.67.3632-.8437.8909-1.6066 1.5523-2.2441 1.3038-1.2565 3.0486-1.9513 4.8593-1.9349 1.8107.0165 3.5427.7428 4.8234 2.0229 1.2808 1.28 2.0081 3.0116 2.0255 4.8223.0175 1.8107-.6764 3.5559-1.9322 4.8604zm4.752-83.47733-8.5547 8.56c-.8051.81123-1.2569 1.90773-1.2569 3.05063s.4518 2.2395 1.2569 3.0507l33.4027 33.4027c.811.8051 1.908 1.2569 3.051 1.2569s2.239-.4518 3.05-1.2569l8.555-8.5547c.805-.8112 1.257-1.9078 1.257-3.0507s-.452-2.2394-1.257-3.0506l-33.4134-33.40803c-.8094-.804438-1.9042-1.25595555-3.0453-1.25595555-1.1412 0-2.2359.45151755-3.0453 1.25595555zm-59.9414 109.32773c.7289-.732 1.1381-1.724 1.1381-2.757s-.4092-2.025-1.1381-2.757l-4.3466-4.352c-.7328-.7309-1.7253-1.1411-2.76-1.1411s-2.0272.4102-2.76 1.1411l-8.98137 8.986-.016.011-2.464-2.469c-.6542-.655-1.54149-1.022-2.46667-1.022s-1.81246.367-2.46666 1.022c-.654206.654-1.02173164 1.541-1.02173164 2.466s.36752564 1.813 1.02173164 2.467l14.8 14.8c.3239.324.7085.581 1.1317.756s.8769.266 1.335.266.9117-.091 1.3349-.266.8078-.432 1.1317-.756c.324-.324.5809-.709.7562-1.132s.2656-.877.2656-1.335-.0903-.911-.2656-1.335c-.1753-.423-.4322-.807-.7562-1.131l-2.4693-2.464.016-.011zm45.2587-84.7624-19.008 19.008c-.811.8189-1.2659 1.9248-1.2659 3.0773 0 1.1526.4549 2.2585 1.2659 3.0774l11.7333 11.7333c4.0897-2.9376 9.0905-4.3258 14.1093-3.9164 5.0187.4094 9.7285 2.5895 13.2881 6.1511l9.504-9.504c.811-.8189 1.266-1.9248 1.266-3.0774 0-1.1525-.455-2.2584-1.266-3.0773l-23.472-23.4667c-.4038-.4047-.8834-.7258-1.4115-.945-.5281-.2191-1.0942-.3318-1.6659-.3318s-1.1378.1127-1.6658.3318c-.5281.2192-1.0077.535-1.4115.9397zm-12.2027 41.8453-6.9333-6.9333c-.7854-.7803-1.8475-1.2183-2.9547-1.2183-1.1071 0-2.1693.438-2.9546 1.2183l-24.4427 24.4587c-.7787.7851-1.2157 1.8462-1.2157 2.952s.437 2.1668 1.2157 2.952l13.8507 13.8557c.7853.781 1.8475 1.219 2.9546 1.219 1.1072 0 2.1693-.438 2.9547-1.219l15.7173-15.749c-1.6509-3.4237-2.3539-7.2273-2.036-11.0149.318-3.7876 1.6454-7.4207 3.844-10.5212z" fill="#e0e5eb"/></g></svg>

<svg width="128" height="128" viewBox="0 0 128 128" fill="none" xmlns="http://www.w3.org/2000/svg">
<g clip-path="url(#clip0_2885_6665)">
<path d="M67.7173 69.9573C66.4205 71.254 65.3919 72.7935 64.6901 74.4878C63.9883 76.1821 63.6271 77.9981 63.6271 79.8319C63.6271 81.6658 63.9883 83.4818 64.6901 85.1761C65.3919 86.8704 66.4205 88.4099 67.7173 89.7066C69.0141 91.0034 70.5535 92.032 72.2478 92.7338C73.9421 93.4356 75.7581 93.7968 77.592 93.7968C79.4259 93.7968 81.2418 93.4356 82.9361 92.7338C84.6304 92.032 86.1699 91.0034 87.4666 89.7066C90.0856 87.0877 91.5568 83.5357 91.5568 79.8319C91.5568 76.1282 90.0856 72.5762 87.4666 69.9573C84.8477 67.3384 81.2957 65.8671 77.592 65.8671C73.8882 65.8671 70.3362 67.3384 67.7173 69.9573ZM82.48 84.7306C81.8429 85.3924 81.0803 85.9205 80.2367 86.2841C79.3932 86.6477 78.4856 86.8396 77.5671 86.8484C76.6486 86.8573 75.7375 86.6829 74.8871 86.3356C74.0367 85.9883 73.2641 85.4749 72.6144 84.8256C71.9647 84.1762 71.4509 83.4039 71.1031 82.5537C70.7553 81.7035 70.5805 80.7925 70.5888 79.874C70.5972 78.9554 70.7885 78.0478 71.1517 77.204C71.5149 76.3603 72.0426 75.5974 72.704 74.9599C74.0078 73.7034 75.7526 73.0086 77.5633 73.025C79.374 73.0415 81.106 73.7678 82.3867 75.0479C83.6675 76.3279 84.3948 78.0595 84.4122 79.8702C84.4297 81.6809 83.7358 83.4261 82.48 84.7306ZM87.232 1.25327L78.6773 9.81327C77.8722 10.6245 77.4204 11.721 77.4204 12.8639C77.4204 14.0068 77.8722 15.1034 78.6773 15.9146L112.08 49.3173C112.891 50.1224 113.988 50.5742 115.131 50.5742C116.274 50.5742 117.37 50.1224 118.181 49.3173L126.736 40.7626C127.541 39.9514 127.993 38.8548 127.993 37.7119C127.993 36.569 127.541 35.4725 126.736 34.6613L93.3226 1.25327C92.5132 0.448832 91.4184 -0.00268555 90.2773 -0.00268555C89.1361 -0.00268555 88.0414 0.448832 87.232 1.25327ZM27.2906 110.581C28.0195 109.849 28.4287 108.857 28.4287 107.824C28.4287 106.791 28.0195 105.799 27.2906 105.067L22.944 100.715C22.2112 99.9841 21.2187 99.5739 20.184 99.5739C19.1493 99.5739 18.1568 99.9841 17.424 100.715L8.44263 109.701L8.42663 109.712L5.96263 107.243C5.30843 106.588 4.42114 106.221 3.49596 106.221C2.57078 106.221 1.6835 106.588 1.0293 107.243C0.375094 107.897 0.00756836 108.784 0.00756836 109.709C0.00756836 110.634 0.375094 111.522 1.0293 112.176L15.8293 126.976C16.1532 127.3 16.5378 127.557 16.961 127.732C17.3842 127.907 17.8379 127.998 18.296 127.998C18.7541 127.998 19.2077 127.907 19.6309 127.732C20.0541 127.557 20.4387 127.3 20.7626 126.976C21.0866 126.652 21.3435 126.267 21.5188 125.844C21.6941 125.421 21.7844 124.967 21.7844 124.509C21.7844 124.051 21.6941 123.598 21.5188 123.174C21.3435 122.751 21.0866 122.367 20.7626 122.043L18.2933 119.579L18.3093 119.568L27.2906 110.581ZM72.5493 25.8186L53.5413 44.8266C52.7303 45.6455 52.2754 46.7514 52.2754 47.9039C52.2754 49.0565 52.7303 50.1624 53.5413 50.9813L65.2746 62.7146C69.3643 59.777 74.3651 58.3888 79.3839 58.7982C84.4026 59.2076 89.1124 61.3877 92.672 64.9493L102.176 55.4453C102.987 54.6264 103.442 53.5205 103.442 52.3679C103.442 51.2154 102.987 50.1095 102.176 49.2906L78.704 25.8239C78.3002 25.4192 77.8206 25.0981 77.2925 24.8789C76.7644 24.6598 76.1983 24.5471 75.6266 24.5471C75.0549 24.5471 74.4888 24.6598 73.9608 24.8789C73.4327 25.0981 72.9531 25.4139 72.5493 25.8186ZM60.3466 67.6639L53.4133 60.7306C52.6279 59.9503 51.5658 59.5123 50.4586 59.5123C49.3515 59.5123 48.2893 59.9503 47.504 60.7306L23.0613 85.1893C22.2826 85.9744 21.8456 87.0355 21.8456 88.1413C21.8456 89.2471 22.2826 90.3081 23.0613 91.0933L36.912 104.949C37.6973 105.73 38.7595 106.168 39.8666 106.168C40.9738 106.168 42.0359 105.73 42.8213 104.949L58.5386 89.2C56.8877 85.7763 56.1847 81.9727 56.5026 78.1851C56.8206 74.3975 58.148 70.7644 60.3466 67.6639Z" fill="#E0E5EB"/>
</g>
<defs>
<clipPath id="clip0_2885_6665">
<rect width="128" height="128" fill="white"/>
</clipPath>
</defs>
</svg>
